X:1
T:When the Comforter Came
T:Robert Lowry
T:When the Comforter Came
T:Public Domain
T:Public Domain
C:Robert Lowry
Z:Public Domain
%%score ( 1 2 ) ( 3 4 )
L:1/8
M:6/8
K:G
V:1 treble 
V:2 treble 
V:3 bass 
V:4 bass 
V:1
 [DG] | [GB]>[GB][GB] [GB][DA][DG] | [FA]3- [FA]2 [FA] | [EG]>[EG][EG] [GB][FA][EG] | %4
w: 1.~My|heart, that was hea- vy and|sad, * Was|made to re- joice and be|
w: 2.~To|sin and to e- vil in-|clined, * With|dark- ness per- vad- ing my|
w: 3.~The|voice of thanks- giv- ing I|raised, * The|Lord, my Re- deem- er, I|
 [Fd]3- [Fd]2 [Ac] | [GB]>[GB][GB] [EA][EG][CE] | ([B,D-]3 [DG]3) | [GB]2 [GB] [GB]>[EA][EG] | %8
w: glad, * And|peace with- out mea- sure I|had, *|When the Com- fort- er|
w: mind, * No|rest I could an- y- where|find, *|Till the Com- fort- er|
w: praised; * I|was at His mer- cy a-|mazed, *|When the Com- fort- er|
 [FA]6 ||"^Refrain" [GB]3 [DG]3 | [CE]6 | [^CE]>[DF][EG] [DF][EG][CE] | D3- D2 D | %13
w: came.|||||
w: came.|||||
w: came.|||||
 [DG]>[DG][DG] [GB][DA][DG] | [DF]3- [DF]2 [DF] | [FA]>[FA][FA] [Ac][GB][FA] | [GB]3- [GB]2 [GB] | %17
w: ||||
w: ||||
w: ||||
 [GB]>[GB][GB] [Gc][Gd][Ge] | (d3 B3) | [DG]2 [DG] [DA]>[DG][DF] | [DG]3- [DG]2 |] %21
w: ||||
w: ||||
w: ||||
V:2
 x | x6 | x6 | x6 | x6 | x6 | x6 | x6 | x6 || x6 | x6 | x6 | D3- D2 D | x6 | x6 | x6 | x6 | x6 | %18
 G6 | x6 | x5 |] %21
V:3
 [G,B,] | [G,D]>[G,D][G,D] [G,D][G,C][G,B,] | [D,D]3- [D,D]2 [D,C] | %3
w: ~|~ ~ ~ ~ ~ ~|~ * ~|
 [E,B,]>[E,B,][E,B,] [E,G,][E,G,][E,G,] | [D,A,]3- [D,A,]2 [D,D] | %5
w: ~ ~ ~ ~ ~ ~|~ * ~|
 [G,D]>[G,D][G,D] [C,C][C,C][E,G,] | (G,3 [G,B,]3) | [G,D]2 [G,D] [G,D]>[F,D][E,^C] | [D,D]6 || %9
w: ~ ~ ~ ~ ~ ~|~ *|* ~ ~ ~ ~|Peace,|
 [G,D]3 [B,,G,]3 | [C,G,]6 | [A,,A,]>[A,,A,][A,,A,] [A,,A,][A,,A,][A,,A,] | %12
w: sweet peace,|Peace|when the Com- fort- er came!|
 [D,F,]3- [D,F,]2 [G,B,] | [G,B,]>[G,B,][G,B,] [G,D][G,C][G,B,] | [D,A,]3- [D,A,]2 [D,A,] | %15
w: My * heart|that was hea- vy and sad,|Was * made|
 [D,D]>[D,D][D,D] [D,D][D,D][D,D] | [G,D]3- [G,D]2 [G,D] | [G,D]>[G,D][=F,D] [E,C][D,B,][C,C] | %18
w: to re- joice and be glad,|And * peace|with- out mea- sure I had,|
 (B,3 D3) | [G,B,]2 [G,B,] [D,C]>[D,B,][D,A,] | [G,B,]3- [G,B,]2 |] %21
w: When *|Com- fort- er came. *||
V:4
 x | x6 | x6 | x6 | x6 | x6 | G,3- x3 | x6 | x6 || x6 | x6 | x6 | x6 | x6 | x6 | x6 | x6 | x6 | %18
w: ||||||~||||||||||||
 G,6 | x6 | x5 |] %21
w: the|||

